X:1
T:Mort et amour
T:Laurent Bonard
T:Source : Livre VIII de 25 chansons nouvelles à 4 parties---Paris---N.du Chemin---1550. Editor : André Vierendeels (24/03/18) Notes : Original clefs : C1, C3, C4, F4 Original note values have been halved Editorial accidentals above the staff 
T:Mort et amour
T:©
T:©
T:©
C:Laurent Bonard
Z:©
%%score [ 1 [ 2 3 ] 4 ]
L:1/8
Q:1/4=120
M:2/2
K:F
V:1 treble nm="Soprano" snm="S"
V:2 treble-8 nm="Tenor 1" snm="T 1"
V:3 treble-8 nm="Tenor 2" snm="T 2"
V:4 bass nm="Bass" snm="B"
V:1
 A8 | B4 d4 | c4 z2 c2 | c2 A2 B2 B2 | AG G4 F2 | G4 z2 G2 | F2 D2 EDEF | G2 G2 B2 B2 | %8
w: Mort|et a-|mour un|iour se ren- con-|trè- * * *|rent, dans|un lo- gis _ _ _|_ si- ni- stre,|
w: Sans|y pen-|ser leur|traict en- tre- chan-|gè- * * *|rent, dont|la mort fit _ _ _|_ maintz vieil- lard|
 A2 GF E2 G2- | GF F4 E2 |[M:2/4] F4 :|[M:2/2] z2 F2 D2 F2 | E2 G2 F2 F2 | F2 E2 D4 | z2 D2 G2 G2 | %15
w: et _ _ _ mal-|* * * heu-|reux,|a- mour aus-|si par ce sert|dou- lou- reux,|du traict d'a-|
w: a- * * * *|* * * mou-|reux,|||||
 B2 AG F4- | F2 F2 GFGA | B2 A2 c3 B | AG B2 A2 G2 | F2 E2 D4 | C8 |: z4 A4- | A4 B4 | d4 c4 | %24
w: mour, _ _ _|_ du traict _ _ _|_ d'a- mour _|_ _ _ les a-|mantz at- trap-|pa,|voil-|* là|pour- quoy|
w: |||||||||
 z2 c2 c2 A2 | B2 B2 AG G2- | G2 F2 G4 | z2 G2 F2 D2 | EDEF G2 G2 | B2 B2 A2 GF | E2 G3 F F2- | %31
w: si tris- st'et|lan- gou- * * *|* * reux,|ie meurs du|treaict _ _ _ _ dont|a- mour me _ _|_ _ _ _|
w: |||||||
 F2 E2 F4 :| %32
w: * frap- pa.|
w: |
V:2
 f8 | f4 f4 | f6 f2 | f2 f2 d2 B2 | e2 c2 d4- |"^#" d4 z2 d2 | d2 A2 c4 | c4 d2 d2 | c2 d2 G2 d2- | %9
w: Mort|et a-|mour un|iour se ren- con-|trè- * rent,|_ dans|un lo- gis|si- ni- stre,|et mal- * *|
w: Sans|y pen-|ser leur|traict en- tre- chan-|gè- * rent,|_ dont|la mort fit|maintz vieil- lard|a- * * *|
 d2 B2 c4 |[M:2/4] A4 :|[M:2/2] z2 B2 B2 A2 | c2 d2 d2 c2 | d2 c2 A2 A2 | B3 A Bc d2- | d2 c2 d4- | %16
w: * * heu-|reux,|a- mour aus-|si par ce sert|dou- lou- ruex, du|traict _ _ _ _|_ d'a- mour,|
w: * * mou-|reux,||||||
 d4 z2 c2 | d2 f2 e2 f2 | f2 d2 f2 ed | cB c2 A2 B2 | G4 A4 |: z4 f4- | f4 f4 | f4 f4- | %24
w: _ du|traict d'a- mour les|a- mantz at- trap- *||* pa.,|voil-|* là|pour- quoy|
w: ||||||||
 f2 f2 f2 f2 |"^b" B2 B2 e2 c2 | d8 | z2 d2 d2 A2 | c4 c4 | d2 d2 c2 d2 | G2 d4 B2 | c4 A4 :| %32
w: _ si tri- st'et|lan- gou- * *|reux,|ie meurs du|traict dont|a- mour me _|_ _ _|frap- pa.|
w: ||||||||
V:3
 c8 | d4 B4 | A4 z2 A2 | A2 c2 BcdB | cB AG A4 | G4 z2 B2 | A2 F2 G2 G2 | G2 E2 FEFG | %8
w: Mort|et a-|mour un|iour se ren- * * *|con- * * * trè-|rent, dans|un lo- gis si-|ni- str'et mal- * * *|
w: Sans|y pen-|ser leur|traict _ en- * * *|tre- * chan- * gè-|rent, dont|la mort fit maintz|vieil- lard a- * * *|
 AGAB c2 B2- | BAGF G4 |[M:2/4] F4 :|[M:2/2] z2 F2 F2 F2 | G2 B2 B2 A2- | AG G4 F2 | G4 z2 G2- | %15
w: |* * * * heu-|reux,|a- mour aus-|si par ce sert|_ _ dou- lou-|reux, du|
w: |* * * * mou-|reux,|||||
 G2 G2 B4 | A2 B4 AG | F2 F2 AGAB | c2 B2 c3 B | A2 G3 F F2- | F2 E2 F4 |: z4 c4- | c4 d4 | B4 A4 | %24
w: _ traict d'a-|mour ses _ _|_ a- mantz _ _ _|_ at- trap- *||* * pa,|voil|_ là|pour- quoy|
w: |||||||||
 z2 A2 A2 c2 | BcdB cBAG | A2 A2 G4 | z2 B2 A2 F2 | G2 G2 G2 E2 | FEFG AGAB | c2 B3 A GF | G4 F4 :| %32
w: si tri- st'et|lan- * * * * * * *|* gou- reux,|ie meurs du|traict dont a- *||mour me _ _ _|frap- pa.|
w: ||||||||
V:4
 F,8 | B,,4 B,,4 | F,8 | F,4 G,2 G,2 | C,2 E,2 D,4 | G,,4 z2 G,,2 | D,2 D,2 C,4- | %7
w: Mort|et a-|mour|un iour se|ren- con- trè-|rent, dans|un lo- gis|
w: Sans|y pen-|ser|leur traict en-|tre chan- gè-|rent, dont|la mort fit|
 C,2 C,2 B,,2 B,,2 | F,2 E,D, C,2 G,,A,, | B,,C, D,2 C,4 |[M:2/4] F,,4 :|[M:2/2] z2 B,,2 B,,2 D,2 | %12
w: _ si- ni- str'et|mal- * * * * *|* * * heu-|reux,|a- mour aus-|
w: _ maintz vieil- lard|a- * * * * *|* * * mou-|reux,||
 C,2 G,,2 B,,2 F,,2 | B,,2 C,2 D,4 | z2 G,2 G,F,E,D, | E,2 E,2 D,2 B,,2 | D,4 E,4 | D,4 z2 F,2 | %18
w: si par ce sert|dou- lou- reux,|du traict _ _ _|_ d'a- mour, du|traict d'a-|mour, ses|
w: ||||||
 F,2 G,2 F,2 C,2 | F,2 C,2 D,2 B,,2 | C,2 C,2 F,,4 |: z4 F,4- | F,4 B,,4 | B,,4 F,4- | F,4 F,4 | %25
w: a- mantz at- trap-|pa, ses a- mantz|at- trap- pa,|voil-|* là|pour- quoy|_ si|
w: |||||||
 G,2 G,2 C,2 E,2 |"^b" D,4 G,,4 | z2 G,,2 D,2 D,2 | C,6 C,2 | B,,2 B,,2 F,2 E,D, | %30
w: tri- st'et lan- *|gou- reux,|ie meurs du|traict dont|a- mour me _ _|
w: |||||
 C,2 G,,A,, B,,C, D,2 | C,4 F,,4 :| %32
w: _ _ _ _ _ _|frap- pa.|
w: ||

